X:1
T:O cruaulté
T:O cruaulté
T:Pierre de Manchicourt
C:Pierre de Manchicourt
%%score [ 1 [ 2 3 ] 4 ]
L:1/8
Q:1/4=90
M:2/2
K:F
V:1 treble nm="Superius" snm="S"
V:2 treble-8 nm="Tenor 1" snm="T 1"
V:3 treble-8 nm="Tenor 2" snm="T 2"
V:4 bass nm="Bassus" snm="B"
V:1
 B8 | B4 A4 | G8 | z4 z2 G2 | G2 D2 E2 F2 | G2 B3 A G2- | GF/E/ F2 G4 | d8 | c4 B4 | A8 | %10
w: O|cru- aul-|té|lo-|gee en grand beaul-||* * * * té,|O|grand beaul-|té|
 z2 D2 F3 G | A2 B2 A2 B2- | BA G4 F2 | G4 z2 B2 | B4 B4 | A2 A2 d3 c | B2 A2 B2 c2- | cB B4 A2 | %18
w: qui lo- *|* gez cru- aul-||té, quant|ma do-|leur ja- mais _|_ ne sen- *|* * * ti-|
 B4 z4 | F8 | G4 F4 | F4 z2 F2 | F2 F2 B3 A | G2 F2 G3 F | E2 D4 C2 | D8 | z2 D2 F2 G2 |: %27
w: ras|au|moins ung|jour, pen-|se'à ma loy- *||* * aul-|té,|in- gra- te'al-|
 A2 B2 A2 c2- | c2 B2 G2 A2- | AG FE D2 B2- | BA G4 F2 | G4 z4 |1 D4 F2 G2 :|2 BA G4 F2 || G8 |] %35
w: lors peult- es- *||* * * * * tre|_ _ te di-|ras,|in- gra- te'al-|(tre)- * te di-|ras|
V:2
 g8 | f4 f4 | e2 dc d4 | z2 d4 d2 | G3 A B2 c2- | cA d4 c2 | d4 B4 | f8 | f4 d3 e | f2 e2 f2 A2 | %10
w: O|cru- aul-|* * * té,|lo- gee|en- * * grand|_ _ _ _|beaul- té,|O|grand beaul- *|* té qui lo-|
 A2 B2 c2 d2- | dc de fe dc | B2 c2 d4- | d4 B4 | z2 g2 g2 g2 | f4 z2 d2 | f3 e d2 f2 | %17
w: gez cru- aul- *|||* té,|quant ma do-|leur ja-|mais _ _ ne|
"^b" g2 e2 f4 | d4 z4 | d8 |"^b" B3 c de d2- | d2 c2 d4 | z2 A2 d4- | d2 d2 B4 | c2 B2 A2 A2 | %25
w: sen- * ti-|ras|au|moins _ _ _ _|_ ung jour,|pen- se'à|_ ma loy-|aul- * té, in-|
 B3 c d2 B2 | A2 B2 d2 e2 |: f4 z2 A2 | c2 d2 e2 f2 | fe dc B2 G2 | B2 c2 d2 A2 | B3 c d2 B2 |1 %32
w: gra- te'al- lors peult|es- tre te di-|ras, in-|gra- te'al- lors peult-|es _ _ _ _ stre|te- _ _ di-||
 A2 B2 d2 e2 :|2 B2 c2 d4 || d8 |] %35
w: |te _ di-|ras.|
V:3
 d8 | d4 c4- | c2 BA B4 | d2 d2 A2 B2 | c2 B4 A2 | G3 F G4 | A4 G4 | B8 | A4 B2 d2- | d2 c2 d4- | %10
w: O|cru- aul-||té, lo- gee en|grand _ _|_ _ _|beaul- té,|O|grand beaul- *|* * té|
 d4 z2 D2 | F2 G2 A2 F2 | G4 A4 | G2 B2 d4 |"^b" e4 d4- | d4 z2 A2 | d3 c B2 A2 | B4 c4 | B4 z4 | %19
w: _ qui|lo- gez cru- aul-||té, quant ma|do- leur|_ ja-|mais _ _ ne|sen- ti-|ras|
 A8 | G3 A Bc B2- | B2 AG A4 | z2 F2 F2 F2 | B3 A GF G2- | G2 F2 E4 | D4 z2 D2 | F2 G2 A2 B2 |: %27
w: au|moins _ _ _ ung|_ _ _ jour,|pen- se'à ma|loy- * * * *|* * aul-|té, in-|gra- te'al- lors peult-|
 c2 d2 c3 d | e2 d2 B2 c2 | dB d3 c BA | G4 A4 | G4 z2 D2 |1 F2 G2 A2 B2 :|2 G4 A4 || G8 |] %35
w: es- * * *||* * tre _ _ _|te di-|ras, in-|gra- te'al- lors peult-|te di-|ras.|
V:4
 G,8 | B,4 F,4 | G,4 z2 G,2 | G,2 D,2 F,2 G,2 | _E,D, G,4 F,2 |"^b""^b" E,3 D, E,4 | D,4 z4 | %7
w: O|cru- aul-|té, lo-|gee en grand _|_ _ _ _|* * beaul-|té,|
 B,,8 | F,4 G,4 | A,4 z2 D,2 | F,2 G,2 A,2 A,2 | D,2 G,2 F,2 B,,2 |"^b" E,4 D,4 | %13
w: O|grand beaul-|té qui|lo- gez cru- aul-|||
 G,,2 G,2 G,2 G,2 | _E,D, E,F, G,4 | D,8 | z2 D,2 G,2 F,2 |"^b" E,2 G,2 F,4 | B,,4 z4 | D,8 | %20
w: té, quant ma do-||leur|ja- mais ne|sen- * ti-|ras|au|
"^b" E,4 B,,4 | F,4 D,4- | D,4 B,,4 |"^b" B,,2 B,,2 E,3 D, | C,2 D,2 A,,4 | z2 G,,2 B,,A,, B,,C, | %26
w: moins ung|_ jour,|_ pen-|se'à ma loy- *|* aul- té,|in gra- * * *|
 D,2 G,,2 D,2 G,2 |: F,2 B,,2 F,3 E, |"^#" C,2 G,4 F,2 | D,2 F,2 G,3 F, |"^b" E,4 D,4 | %31
w: * te'al- lors peul-|es- * * *||* * tre _|_ di-|
 G,,2 G,,2 B,,3 C, |1 D,2 G,,2 D,2 G,2 :|2"^b" E,4 D,4 || G,,8 |] %35
w: ras, in- gra- *|* te'al- lors peult-|te di-|ras.|

